X:84
L:1/4
Q:1/4=120
M:6/4
K:G
"G" B3"^(D7)" A2"^(Em)" G |"C" G2 E E3 |"G" D3 G2 B |"D" A3- A2 z |"G" B3"^(D7)" A2"^(Em)" G | 
"C" G2 E E3 |"G/D" (D2 G)"D" F2"^(D7)" A |"G" G3- G2 z |"G" d3"C" e2 d |"G" d2 B d3 | d3"C" e2 d | 
"D" d2 B A3 |"G" B3"^(D7)" A2"^(Em)" G |"C" G2 E E3 |"G/D" (D2 G)"D" F2"^(D7)" A |"G" G3- G2 z |]

